assets/images/clients/ASTRAZENECA.svg

<svg width="300" height="120" viewBox="0 0 300 120" fill="none" xmlns="http://www.w3.org/2000/svg">
<g clip-path="url(#clip0_3300_14520)">
<path fill-rule="evenodd" clip-rule="evenodd" d="M87.2027 63.3588L89.3975 57.2781L91.4958 63.3588H87.2027ZM93.6424 69.4886H95.6684L90.4346 54.8262H88.4327L82.9336 69.4886H84.9837L86.5997 65.0017H92.0988L93.6424 69.4886ZM100.058 64.4131C98.1767 63.9964 96.2472 63.5549 96.2472 61.2501C96.2472 59.2396 97.9355 57.9647 100.468 57.9647C102.108 57.9647 103.676 58.5776 104.448 60.0977L102.735 60.8088C102.591 60.392 101.722 59.3867 100.251 59.3867C98.8039 59.3867 98.0802 60.2449 98.0802 61.0049C98.0802 62.0593 99.4551 62.5007 100.613 62.7459C103.025 63.2362 105.147 63.8737 105.147 66.2031C105.147 68.0174 103.579 69.7093 100.565 69.7093C98.3455 69.7093 96.7779 68.9492 96.0061 67.3799L97.9596 67.0367C98.442 67.8948 99.3345 68.2627 100.637 68.2627C102.277 68.2627 103.218 67.6251 103.218 66.4237C103.242 65.1732 101.674 64.7809 100.058 64.4131ZM109.199 58.3079H111.201V59.8771H109.199V66.2031C109.199 67.5271 109.199 68.0909 109.995 68.0909C110.333 68.0909 110.839 67.9439 111.201 67.8212V69.366C110.887 69.4151 110.116 69.5621 109.416 69.5621C107.294 69.5621 107.294 68.5079 107.318 67.0612V59.8771H105.581V58.3079H107.318V55.6599L109.223 54.8507V58.3079H109.199ZM114.698 58.3324V60.3185C115.735 58.2099 117.713 58.1608 118.437 58.1363V60.0732C116.628 60.0977 115.735 60.4656 115.156 61.4464C114.674 62.2554 114.698 63.3833 114.698 64.3395V69.4641H112.865V58.3324H114.698ZM139.71 54.8262V56.6651L131.557 67.7232H139.927V69.4886H129.338V67.5761L137.539 56.6406H129.338V54.8262H139.71ZM153.264 58.4305V60.0487C154.277 58.2343 156.038 58.0627 156.689 58.0627C158.088 58.0627 159.752 58.7737 160.283 60.6127C160.476 61.2746 160.476 61.9612 160.476 62.893V69.4886H158.643V63.1872C158.643 62.0593 158.643 61.7406 158.522 61.3483C158.209 60.2939 157.172 59.828 156.183 59.828C155.363 59.828 154.663 60.0977 154.084 60.6617C153.265 61.4954 153.264 62.3289 153.264 63.1627V69.4886H151.431V58.4305H153.264ZM181.628 67.5026C180.953 68.6059 179.699 69.7093 177.456 69.7093C173.573 69.7093 172.125 66.6689 172.125 63.9473C172.125 60.8088 173.814 57.9402 177.311 57.9402C178.686 57.9402 180.591 58.3569 181.652 60.1469L179.94 60.8824C179.626 60.1469 178.903 59.3132 177.383 59.3132C174.369 59.3132 174.176 62.8194 174.176 63.8002C174.176 67.4781 176.25 68.2627 177.48 68.2627C178.903 68.2627 179.626 67.5761 180.012 66.8159L181.628 67.5026ZM142.556 62.7703H148.368C148.199 59.8526 146.559 59.3622 145.45 59.3622C143.858 59.3622 142.749 60.5391 142.556 62.7703ZM149.864 67.3799C149.237 68.4588 148.031 69.7093 145.643 69.7093C142.411 69.7093 140.554 67.4781 140.554 63.7267C140.554 59.5338 143.279 57.9402 145.57 57.9402C147.572 57.9402 149.502 59.0679 150.153 61.8631C150.37 62.7949 150.37 63.6531 150.37 64.1189H142.507C142.459 65.9824 143.231 68.3362 145.812 68.2872C146.873 68.2627 147.621 67.7723 148.079 67.0122L149.864 67.3799ZM163.443 62.7703H169.255C169.087 59.8526 167.446 59.3622 166.337 59.3622C164.769 59.3622 163.66 60.5391 163.443 62.7703ZM170.775 67.3799C170.148 68.4588 168.942 69.7093 166.554 69.7093C163.322 69.7093 161.465 67.4781 161.465 63.7267C161.465 59.5338 164.19 57.9402 166.482 57.9402C168.484 57.9402 170.413 59.0679 171.064 61.8631C171.281 62.7949 171.281 63.6531 171.281 64.1189H163.419C163.37 65.9824 164.142 68.3362 166.723 68.2872C167.784 68.2627 168.532 67.7723 168.99 67.0122L170.775 67.3799ZM191.662 69.4886H189.757C189.757 69.4886 189.588 68.704 189.539 67.8458C188.984 68.4343 187.947 69.6357 185.873 69.6357C183.751 69.6357 182.159 68.3607 182.159 66.4728C182.159 65.8843 182.328 65.2958 182.641 64.8054C183.268 63.8737 184.426 63.1136 187.683 62.8439L189.419 62.6968V62.4025C189.419 61.2501 189.419 59.3132 186.982 59.3132C185.439 59.3132 184.933 60.0732 184.74 60.7597L183.051 60.0487C183.075 59.9752 183.1 59.9261 183.148 59.8771C183.799 58.6511 185.077 57.891 186.91 57.891C187.924 57.891 189.25 58.1608 190.094 58.8227C191.324 59.7544 191.276 61.618 191.276 61.618L191.348 67.3309C191.373 67.3799 191.445 69.0227 191.662 69.4886ZM189.153 66.4237C189.443 65.8106 189.443 65.5409 189.443 63.9228C188.72 64.0453 187.755 64.1925 186.572 64.4376C184.547 64.879 184.185 65.6636 184.185 66.4482C184.185 67.3309 184.884 68.0909 186.235 68.0909C187.537 68.0909 188.623 67.5761 189.153 66.4237ZM128.012 69.4886H126.106C126.106 69.4886 125.938 68.704 125.889 67.8458C125.335 68.4343 124.298 69.6357 122.223 69.6357C120.101 69.6357 118.509 68.3607 118.509 66.4728C118.509 65.8843 118.678 65.2958 118.991 64.8054C119.619 63.8737 120.776 63.1136 124.032 62.8439L125.769 62.6968V62.4025C125.769 61.2501 125.769 59.3132 123.333 59.3132C121.789 59.3132 121.283 60.0732 121.09 60.7597L119.401 60.0487C119.426 59.9996 119.45 59.9261 119.498 59.8771C120.149 58.6511 121.427 57.891 123.261 57.891C124.273 57.891 125.6 58.1608 126.444 58.8227C127.674 59.7544 127.626 61.618 127.626 61.618L127.698 67.3309C127.722 67.3799 127.795 69.0227 128.012 69.4886ZM125.504 66.4237C125.793 65.8106 125.793 65.5409 125.793 63.9228C125.069 64.0453 124.105 64.1925 122.923 64.4376C120.897 64.879 120.535 65.6636 120.535 66.4482C120.535 67.3309 121.235 68.0909 122.585 68.0909C123.888 68.0909 124.973 67.5761 125.504 66.4237Z" fill="#949494"/>
<path fill-rule="evenodd" clip-rule="evenodd" d="M216.791 54.0657C216.791 53.9922 216.768 53.9186 216.768 53.8696C216.743 53.7225 216.695 53.5998 216.647 53.4772C216.599 53.3301 216.527 53.2076 216.454 53.0849C216.382 52.9379 216.285 52.8152 216.189 52.6682C216.141 52.5946 216.068 52.5209 215.996 52.4474C215.923 52.3738 215.852 52.3003 215.755 52.2268C215.562 52.0796 215.393 51.9326 215.176 51.7854C214.717 51.5157 214.284 51.2215 213.801 51.0008C213.222 50.7311 212.666 50.4369 212.064 50.2163L208.061 48.7941C208.061 48.0094 208.085 47.2494 208.061 46.4648C208.036 45.3124 207.965 44.16 207.891 43.0076C207.82 42.1984 207.747 41.4138 207.602 40.6047C207.506 39.9917 207.361 39.3787 207.217 38.7658C207.192 38.6187 207.144 38.4961 207.097 38.3489C207.023 38.1037 206.927 37.8831 206.807 37.6624C206.71 37.4908 206.614 37.3191 206.493 37.1475C206.348 36.9513 206.18 36.7797 205.986 36.6571C205.891 36.5836 205.77 36.51 205.673 36.461C205.576 36.4119 205.48 36.3874 205.383 36.3629C205.238 36.3139 205.094 36.3139 204.926 36.2893C204.564 36.2648 204.226 36.3139 203.888 36.4364C203.768 36.4855 203.647 36.5345 203.527 36.6081C203.261 36.7552 202.996 36.9268 202.731 37.0985C202.514 37.2701 202.273 37.4417 202.078 37.6379C201.235 38.447 200.415 39.2561 199.595 40.0898C199.161 40.5311 198.751 40.997 198.365 41.4874C196.821 43.3999 195.277 45.3124 193.782 47.2739C193.131 48.1321 192.528 49.0637 191.9 49.971C191.756 50.1918 191.611 50.4369 191.467 50.6821C191.25 51.0989 191.009 51.5157 190.816 51.9571C190.768 52.0796 190.719 52.1777 190.671 52.3003C190.622 52.4229 190.599 52.5209 190.574 52.6436C190.527 52.8398 190.502 53.0604 190.502 53.281C190.502 53.3301 190.527 53.3791 190.527 53.4282C190.55 53.4772 190.574 53.5262 190.599 53.5753C190.671 53.6735 190.743 53.796 190.816 53.8696C190.912 53.9677 191.009 54.0657 191.129 54.1638C191.25 54.2618 191.346 54.3354 191.467 54.4335C191.684 54.5805 191.9 54.7033 192.118 54.8258C192.215 54.8749 192.312 54.9239 192.407 54.973C192.432 54.9975 192.335 54.9484 192.311 54.9239H192.335L192.504 54.9975C193.83 55.7085 195.157 56.395 196.483 57.1061C197.81 57.8171 199.136 58.5527 200.44 59.2883L203.382 60.9801C202.369 61.7648 201.308 62.5249 200.319 63.3339C199.933 63.6526 199.571 63.996 199.233 64.3392C198.943 64.6334 198.678 64.9277 198.437 65.2465C198.245 65.4916 198.051 65.7613 197.882 66.0311C197.738 66.2518 197.641 66.4724 197.521 66.693C197.448 66.8646 197.377 67.0363 197.328 67.2325C197.28 67.3551 197.256 67.5022 197.231 67.6247C197.207 67.6983 197.207 67.7964 197.207 67.8699V67.9435V68.1641C197.231 68.4094 197.28 68.6791 197.4 68.8997C197.424 68.9488 197.448 68.9978 197.497 69.0469C197.569 69.1449 197.641 69.243 197.714 69.3167C197.786 69.3902 197.882 69.4637 197.979 69.5373C198.075 69.6108 198.171 69.6599 198.268 69.7334C198.365 69.7825 198.486 69.8315 198.582 69.8805C198.678 69.9296 198.798 69.9786 198.919 70.0031C199.331 70.1012 199.74 70.1747 200.174 70.2483C200.367 70.2728 200.583 70.2974 200.801 70.2728C201.525 70.2238 202.224 70.1502 202.923 70.0277C203.743 69.905 204.564 69.7089 205.383 69.5373C206.348 69.3167 207.312 69.0959 208.254 68.8507C208.929 68.6791 209.604 68.5075 210.257 68.2378C210.762 68.0171 211.269 67.821 211.775 67.6002C211.896 67.5513 211.993 67.4777 212.089 67.4286C212.185 67.3796 212.282 67.3061 212.378 67.2325C212.451 67.1835 212.546 67.1098 212.595 67.0363C212.643 66.9873 212.716 66.9137 212.764 66.8401C212.836 66.7176 212.909 66.5949 212.933 66.4724C212.957 66.3498 212.957 66.2272 212.933 66.1291C212.909 66.0066 212.861 65.9084 212.813 65.8103C212.764 65.7123 212.692 65.6142 212.62 65.5407C212.475 65.3935 212.331 65.2465 212.161 65.1483C212.089 65.0993 212.016 65.0503 211.944 65.0013C211.414 64.6824 210.907 64.3637 210.377 64.045L208.157 62.721C209.508 61.7893 210.859 60.882 212.185 59.9503C212.764 59.558 213.319 59.1166 213.849 58.6753C214.308 58.283 214.742 57.8907 215.176 57.4739C215.393 57.2777 215.562 57.0569 215.755 56.8363C215.852 56.7383 215.923 56.6402 215.996 56.5176C216.068 56.4195 216.141 56.3214 216.189 56.2234C216.358 55.8802 216.527 55.5123 216.671 55.1691C216.72 55.0219 216.743 54.8503 216.791 54.7033C216.817 54.6296 216.817 54.556 216.817 54.4825C216.817 54.409 216.817 54.3354 216.817 54.2618C216.817 54.2128 216.791 54.1393 216.791 54.0657ZM200.294 44.871C201.042 44.0864 201.79 43.3018 202.562 42.5172C202.706 42.3701 202.852 42.2475 202.996 42.1249C203.044 42.0759 203.093 42.0268 203.164 42.0023C203.213 41.9778 203.238 41.9287 203.285 41.9042C203.309 41.8797 203.358 41.8552 203.382 41.8552C203.43 41.8307 203.454 41.8307 203.502 41.8061H203.623C203.671 41.8061 203.72 41.8307 203.743 41.8552C203.791 41.8797 203.84 41.9287 203.864 41.9532C203.888 41.9778 203.912 42.0023 203.912 42.0268C203.937 42.0513 203.961 42.1004 203.961 42.1249C204.009 42.223 204.032 42.321 204.058 42.4191C204.081 42.5662 204.129 42.7133 204.153 42.8605C204.202 43.2282 204.25 43.5715 204.299 43.9393C204.347 44.4052 204.395 44.871 204.419 45.3369L204.636 47.8133L201.91 47.1758L199.377 46.759L198.775 46.71H198.582C199.161 46.097 199.715 45.484 200.294 44.871ZM198.606 48.3037H198.63H198.654L198.751 48.3282L198.992 48.4264L199.331 48.5734C200.199 48.9412 201.067 49.3335 201.935 49.7013C202.514 49.9465 203.093 50.1918 203.647 50.4369L204.781 50.9273L204.877 50.9763C204.949 51.8835 205.022 52.7907 205.07 53.698C205.118 54.409 205.118 55.12 205.142 55.831V56.1008C205.142 56.1499 205.142 56.1989 205.118 56.248C205.118 56.2969 205.094 56.346 205.094 56.395C205.07 56.4441 205.07 56.4931 205.046 56.5421C205.022 56.5911 204.997 56.6157 204.974 56.6647C204.949 56.6892 204.949 56.6892 204.926 56.7138C204.901 56.7383 204.877 56.7383 204.853 56.7628C204.805 56.7873 204.756 56.8118 204.685 56.8118C204.611 56.8363 204.54 56.8363 204.467 56.8118C204.419 56.8118 204.395 56.7873 204.347 56.7873C204.299 56.7873 204.25 56.7628 204.226 56.7383C204.129 56.6892 204.058 56.6647 203.961 56.6157C203.864 56.5666 203.768 56.4931 203.695 56.4441C203.599 56.3705 203.502 56.2969 203.405 56.2234C203.309 56.1253 203.213 56.0517 203.116 55.9537C202.923 55.733 202.731 55.5123 202.537 55.2916C202.199 54.8749 201.862 54.4825 201.573 54.0412C201.187 53.4282 200.778 52.8398 200.39 52.2268C200.149 51.859 199.933 51.4912 199.74 51.0989L198.872 49.3335L198.678 48.7695L198.63 48.5979L198.606 48.4264V48.3037ZM208.229 63.9224C208.47 64.0695 208.712 64.2166 208.929 64.3882C209.218 64.5843 209.532 64.7805 209.821 65.0013C210.039 65.1483 210.231 65.32 210.424 65.4916C210.521 65.5652 210.592 65.6387 210.666 65.7368C210.739 65.8104 210.787 65.8839 210.835 65.9574V65.9821V66.0311C210.835 66.0311 210.835 66.0556 210.81 66.0556L210.787 66.0801C210.762 66.0801 210.762 66.0801 210.739 66.1046C210.713 66.1046 210.689 66.1046 210.666 66.1046C209.508 66.2027 208.374 66.2763 207.217 66.3743L202.731 66.7421H202.585L202.658 66.6685L202.946 66.4233C203.527 65.9821 204.081 65.5162 204.685 65.0993L207.217 63.3584L208.229 63.9224ZM211.678 54.9484C211.655 55.0465 211.607 55.12 211.557 55.1936C211.486 55.2916 211.389 55.3652 211.316 55.4633C211.125 55.6349 210.955 55.8065 210.739 55.9537C210.014 56.4686 209.315 56.9836 208.592 57.4984C208.085 57.8416 207.579 58.1604 207.071 58.5037L204.129 60.4162L202.875 59.6806L197.545 56.5911C196.339 55.8555 195.133 55.1446 193.927 54.3844C193.71 54.2374 193.493 54.0902 193.275 53.9186C193.203 53.8696 193.155 53.8205 193.083 53.7715C193.059 53.747 193.034 53.747 193.011 53.7225C192.962 53.6735 192.914 53.6243 192.866 53.5998C192.817 53.5507 192.77 53.4772 192.745 53.4037C192.721 53.3546 192.721 53.3301 192.721 53.281C192.721 53.2321 192.721 53.183 192.721 53.1585C192.745 53.0604 192.77 52.9624 192.817 52.8888C192.939 52.6927 193.059 52.4964 193.228 52.3493C193.927 51.6383 194.627 50.9273 195.302 50.1918L197.159 48.2547L197.256 48.5734L197.472 49.1129L197.497 49.1374C197.979 49.9955 198.461 50.9027 198.968 51.7364C199.571 52.7172 200.222 53.6735 200.872 54.6051C201.187 55.0465 201.501 55.4878 201.837 55.9047C202.128 56.2724 202.441 56.6402 202.755 56.9589C203.044 57.2533 203.358 57.5229 203.671 57.7925C203.84 57.9152 204.009 58.0133 204.178 58.1359C204.347 58.234 204.515 58.3075 204.685 58.3566C204.853 58.4056 205.022 58.4547 205.19 58.4547C205.383 58.4792 205.601 58.4547 205.794 58.4056C205.842 58.3811 205.914 58.3811 205.962 58.3566C206.011 58.332 206.059 58.3075 206.106 58.283C206.155 58.2586 206.203 58.234 206.252 58.185C206.324 58.1358 206.396 58.0622 206.469 57.9889C206.518 57.9397 206.589 57.8661 206.638 57.7925C206.71 57.7191 206.759 57.621 206.807 57.5229C206.951 57.2777 207.071 57.0324 207.144 56.7628C207.241 56.4686 207.338 56.1744 207.386 55.8802C207.482 55.4878 207.579 55.071 207.627 54.6788L207.868 52.3248C208.422 52.5946 208.977 52.8152 209.532 53.1094C210.062 53.3791 210.569 53.7225 211.076 54.0166C211.125 54.0412 211.196 54.0902 211.245 54.1393C211.317 54.2128 211.389 54.2618 211.462 54.3354C211.534 54.409 211.582 54.507 211.63 54.6051C211.655 54.6541 211.655 54.7033 211.678 54.7523V54.8258C211.703 54.8994 211.703 54.9239 211.678 54.9484Z" fill="#949494"/>
</g>
<defs>
<clipPath id="clip0_3300_14520">
<rect width="135" height="35" fill="white" transform="translate(82 36)"/>
</clipPath>
</defs>
</svg>

<svg width="300" height="120" viewBox="0 0 300 120" fill="none" xmlns="http://www.w3.org/2000/svg"><g clip-path="url(#a)" fill-rule="evenodd" clip-rule="evenodd" fill="#949494"><path d="m87.203 63.359 2.194-6.08 2.099 6.08h-4.293Zm6.44 6.13h2.025l-5.233-14.663h-2.002l-5.5 14.663h2.05l1.617-4.487h5.499l1.543 4.487Zm6.415-5.076c-1.881-.417-3.81-.858-3.81-3.163 0-2.01 1.688-3.285 4.22-3.285 1.64 0 3.208.613 3.98 2.133l-1.713.71c-.144-.416-1.013-1.421-2.484-1.421-1.447 0-2.17.858-2.17 1.618 0 1.054 1.374 1.496 2.532 1.74 2.412.491 4.534 1.129 4.534 3.458 0 1.814-1.568 3.506-4.582 3.506-2.22 0-3.787-.76-4.559-2.33l1.954-.342c.482.858 1.375 1.226 2.677 1.226 1.64 0 2.581-.638 2.581-1.84.024-1.25-1.544-1.642-3.16-2.01Zm9.141-6.105h2.002v1.57h-2.002v6.325c0 1.324 0 1.888.796 1.888.338 0 .844-.147 1.206-.27v1.545c-.314.05-1.085.196-1.785.196-2.122 0-2.122-1.054-2.098-2.5v-7.185h-1.737v-1.57h1.737V55.66l1.905-.81v3.458h-.024Zm5.499.024v1.986c1.037-2.108 3.015-2.157 3.739-2.182v1.937c-1.809.025-2.702.393-3.281 1.373-.482.81-.458 1.937-.458 2.894v5.124h-1.833V58.332h1.833Zm25.012-3.506v1.84l-8.153 11.057h8.37v1.766h-10.589v-1.913l8.201-10.935h-8.201v-1.815h10.372Zm13.554 3.605v1.618c1.013-1.815 2.774-1.986 3.425-1.986 1.399 0 3.063.71 3.594 2.55.193.662.193 1.348.193 2.28v6.596h-1.833v-6.302c0-1.128 0-1.446-.121-1.839-.313-1.054-1.35-1.52-2.339-1.52-.82 0-1.52.27-2.099.834-.819.833-.82 1.667-.82 2.5v6.327h-1.833V58.43h1.833Zm28.364 9.072c-.675 1.103-1.929 2.206-4.172 2.206-3.883 0-5.331-3.04-5.331-5.762 0-3.138 1.689-6.007 5.186-6.007 1.375 0 3.28.417 4.341 2.207l-1.712.735c-.314-.735-1.037-1.569-2.557-1.569-3.014 0-3.207 3.506-3.207 4.487 0 3.678 2.074 4.463 3.304 4.463 1.423 0 2.146-.687 2.532-1.447l1.616.687Zm-39.072-4.733h5.812c-.169-2.917-1.809-3.408-2.918-3.408-1.592 0-2.701 1.177-2.894 3.408Zm7.308 4.61c-.627 1.079-1.833 2.33-4.221 2.33-3.232 0-5.089-2.232-5.089-5.983 0-4.193 2.725-5.787 5.016-5.787 2.002 0 3.932 1.128 4.583 3.923.217.932.217 1.79.217 2.256h-7.863c-.048 1.863.724 4.217 3.305 4.168 1.061-.024 1.809-.515 2.267-1.275l1.785.368Zm13.579-4.61h5.812c-.168-2.917-1.809-3.408-2.918-3.408-1.568 0-2.677 1.177-2.894 3.408Zm7.332 4.61c-.627 1.079-1.833 2.33-4.221 2.33-3.232 0-5.089-2.232-5.089-5.983 0-4.193 2.725-5.787 5.017-5.787 2.002 0 3.931 1.128 4.582 3.923.217.932.217 1.79.217 2.256h-7.862c-.049 1.863.723 4.217 3.304 4.168 1.061-.024 1.809-.515 2.267-1.275l1.785.368Zm20.887 2.109h-1.905s-.169-.785-.218-1.643c-.555.588-1.592 1.79-3.666 1.79-2.122 0-3.714-1.275-3.714-3.163 0-.589.169-1.177.482-1.668.627-.931 1.785-1.691 5.042-1.961l1.736-.147v-.294c0-1.153 0-3.09-2.437-3.09-1.543 0-2.049.76-2.242 1.447l-1.689-.711a.399.399 0 0 1 .097-.172c.651-1.226 1.929-1.986 3.762-1.986 1.014 0 2.34.27 3.184.932 1.23.931 1.182 2.795 1.182 2.795l.072 5.713c.025.049.097 1.692.314 2.158Zm-2.509-3.065c.29-.613.29-.883.29-2.501-.723.122-1.688.27-2.871.515-2.025.441-2.387 1.226-2.387 2.01 0 .883.699 1.643 2.05 1.643 1.302 0 2.388-.515 2.918-1.667Zm-61.141 3.065h-1.906s-.168-.785-.217-1.643c-.554.588-1.591 1.79-3.666 1.79-2.122 0-3.714-1.275-3.714-3.163 0-.589.169-1.177.482-1.668.628-.931 1.785-1.691 5.041-1.961l1.737-.147v-.294c0-1.153 0-3.09-2.436-3.09-1.544 0-2.05.76-2.243 1.447l-1.689-.711c.025-.05.049-.123.097-.172.651-1.226 1.929-1.986 3.763-1.986 1.012 0 2.339.27 3.183.932 1.23.931 1.182 2.795 1.182 2.795l.072 5.713c.024.049.097 1.692.314 2.158Zm-2.508-3.065c.289-.613.289-.883.289-2.501-.724.122-1.688.27-2.87.515-2.026.441-2.388 1.226-2.388 2.01 0 .883.7 1.643 2.05 1.643 1.303 0 2.388-.515 2.919-1.667Zm91.287-12.358c0-.074-.023-.147-.023-.196a1.929 1.929 0 0 0-.121-.393 1.925 1.925 0 0 0-.193-.392c-.072-.147-.169-.27-.265-.417-.048-.073-.121-.147-.193-.22-.073-.074-.144-.148-.241-.221-.193-.147-.362-.294-.579-.442-.459-.27-.892-.563-1.375-.784-.579-.27-1.135-.564-1.737-.785l-4.003-1.422c0-.785.024-1.545 0-2.33a81.612 81.612 0 0 0-.17-3.456c-.071-.81-.144-1.594-.289-2.403-.096-.613-.241-1.226-.385-1.84-.025-.146-.073-.269-.12-.416a3.576 3.576 0 0 0-.29-.687c-.097-.171-.193-.343-.314-.514a1.923 1.923 0 0 0-.507-.49 2.087 2.087 0 0 0-.313-.197 1.345 1.345 0 0 0-.29-.098c-.145-.05-.289-.05-.457-.074-.362-.024-.7.025-1.038.147-.12.05-.241.099-.361.172-.266.147-.531.319-.796.49-.217.172-.458.344-.653.54-.843.809-1.663 1.618-2.483 2.452-.434.441-.844.907-1.23 1.397-1.544 1.913-3.088 3.825-4.583 5.787-.651.858-1.254 1.79-1.882 2.697-.144.22-.289.466-.433.711-.217.417-.458.834-.651 1.275-.048.123-.097.22-.145.343-.049.123-.072.22-.097.344a2.782 2.782 0 0 0-.072.637c0 .05.025.098.025.147.023.05.047.098.072.147.072.098.144.221.217.295.096.098.193.196.313.294.121.098.217.171.338.27.217.147.433.27.651.392l.289.147c.025.025-.072-.025-.096-.05h.024l.169.075c1.326.71 2.653 1.397 3.979 2.108a211.89 211.89 0 0 1 3.957 2.182l2.942 1.692c-1.013.785-2.074 1.545-3.063 2.354a14.44 14.44 0 0 0-1.086 1.005c-.29.294-.555.589-.796.907a9.324 9.324 0 0 0-.555.785c-.144.22-.241.441-.361.662a3.548 3.548 0 0 0-.193.54c-.048.122-.072.27-.097.392-.024.073-.024.171-.024.245v.294c.024.245.073.515.193.736.024.049.048.098.097.147.072.098.144.196.217.27.072.073.168.147.265.22.096.074.192.123.289.196.097.05.218.099.314.147.096.05.216.099.337.123.412.098.821.172 1.255.245.193.025.409.05.627.025a20.057 20.057 0 0 0 2.122-.245c.82-.123 1.641-.32 2.46-.49.965-.221 1.929-.442 2.871-.687.675-.172 1.35-.344 2.003-.613.505-.22 1.012-.417 1.518-.638.121-.049.218-.122.314-.171a2 2 0 0 0 .289-.197.839.839 0 0 0 .217-.196c.048-.049.121-.122.169-.196.072-.122.145-.245.169-.368a.825.825 0 0 0 0-.343 1.25 1.25 0 0 0-.12-.319 1.118 1.118 0 0 0-.193-.27c-.145-.147-.289-.294-.459-.392l-.217-.147c-.53-.319-1.037-.637-1.567-.956l-2.22-1.324c1.351-.932 2.702-1.839 4.028-2.77a21.336 21.336 0 0 0 1.664-1.276c.459-.392.893-.784 1.327-1.201.217-.196.386-.417.579-.638.097-.098.168-.196.241-.318.072-.099.145-.197.193-.295.169-.343.338-.71.482-1.054.049-.147.072-.319.12-.466.026-.073.026-.147.026-.22v-.221c0-.05-.026-.123-.026-.196Zm-16.497-9.195c.748-.785 1.496-1.57 2.268-2.354.144-.147.29-.27.434-.392a.439.439 0 0 1 .168-.123c.049-.024.074-.073.121-.098a.183.183 0 0 1 .097-.049c.048-.024.072-.024.12-.049h.121a.18.18 0 0 1 .12.05.534.534 0 0 1 .121.097c.024.025.048.05.048.074a.182.182 0 0 1 .049.098c.048.098.071.196.097.294.023.147.071.294.095.442l.146 1.078c.048.466.096.932.12 1.398l.217 2.476-2.726-.637-2.533-.417-.602-.049h-.193c.579-.613 1.133-1.226 1.712-1.839Zm-1.688 3.433h.048l.097.024.241.098.339.147c.868.368 1.736.76 2.604 1.128.579.245 1.158.49 1.712.736l1.134.49.096.05c.072.907.145 1.814.193 2.721.048.711.048 1.422.072 2.133v.27c0 .049 0 .098-.024.147 0 .049-.024.098-.024.147-.024.05-.024.098-.048.147-.024.05-.049.074-.072.123-.025.024-.025.024-.048.049-.025.024-.049.024-.073.049a.345.345 0 0 1-.168.049.332.332 0 0 1-.218 0c-.048 0-.072-.025-.12-.025a.184.184 0 0 1-.121-.049c-.097-.049-.168-.073-.265-.122-.097-.05-.193-.123-.266-.172a64.61 64.61 0 0 0-.29-.22c-.096-.099-.192-.172-.289-.27-.193-.221-.385-.442-.579-.662-.338-.417-.675-.81-.964-1.25-.386-.614-.795-1.202-1.183-1.815a10.506 10.506 0 0 1-.65-1.128l-.868-1.765-.194-.565-.048-.171-.024-.172v-.122Zm9.623 15.618c.241.148.483.295.7.466.289.196.603.392.892.613.218.147.41.319.603.49a1.2 1.2 0 0 1 .242.246c.073.073.121.147.169.22v.075s0 .024-.025.024l-.023.024c-.025 0-.025 0-.048.025h-.073c-1.158.098-2.292.171-3.449.27l-4.486.367h-.146l.073-.074.288-.245c.581-.44 1.135-.907 1.739-1.324l2.532-1.74 1.012.563Zm3.449-8.974a.717.717 0 0 1-.121.246c-.071.098-.168.171-.241.27-.191.17-.361.343-.577.49-.725.515-1.424 1.03-2.147 1.544-.507.344-1.013.662-1.521 1.006l-2.942 1.912-1.254-.735-5.33-3.09c-1.206-.736-2.412-1.446-3.618-2.207a11.014 11.014 0 0 1-.652-.465c-.072-.05-.12-.098-.192-.147-.024-.025-.049-.025-.072-.05-.049-.049-.097-.098-.145-.122a.538.538 0 0 1-.121-.196c-.024-.05-.024-.074-.024-.123v-.123a.918.918 0 0 1 .096-.27c.122-.195.242-.392.411-.539a86.2 86.2 0 0 0 2.074-2.157l1.857-1.937.097.318.216.54.025.024c.482.858.964 1.766 1.471 2.6.603.98 1.254 1.936 1.904 2.868.315.442.629.883.965 1.3.291.367.604.735.918 1.054.289.294.603.564.916.833.169.123.338.221.507.344.169.098.337.171.507.22.168.05.337.099.505.099.193.024.411 0 .604-.05.048-.024.12-.024.168-.048l.144-.074a.507.507 0 0 0 .146-.098c.072-.05.144-.123.217-.196.049-.05.12-.123.169-.197a.997.997 0 0 0 .169-.27c.144-.244.264-.49.337-.76.097-.293.194-.588.242-.882.096-.392.193-.809.241-1.201l.241-2.354c.554.27 1.109.49 1.664.784.53.27 1.037.613 1.544.908.049.024.12.073.169.122.072.074.144.123.217.196.072.074.12.172.168.27.025.05.025.098.048.147v.074c.025.073.025.098 0 .122Z"/></g><defs><clipPath id="a"><path fill="#fff" transform="translate(82 36)" d="M0 0h135v35H0z"/></clipPath></defs></svg>
